static/assets/img/icons/theme/home/water-mixer.svg

<svg height="24" viewBox="0 0 24 24" width="24" xmlns="http://www.w3.org/2000/svg"><g fill="none" fill-rule="evenodd"><path d="m0 0h24v24h-24z" opacity="0"/><g fill="#000"><path d="m8 18c2.209139 0 4 1.790861 4 4h-8c0-2.209139 1.790861-4 4-4z" opacity=".3"/><path d="m7 12.1260175v-4.1260175c0-3.3137085 2.6862915-6 6-6s6 2.6862915 6 6v1h-2v-1c0-2.209139-1.790861-4-4-4s-4 1.790861-4 4v4.1260175c1.7252272.4440428 3 2.0101431 3 3.8739825 0 2.209139-1.790861 4-4 4s-4-1.790861-4-4c0-1.8638394 1.27477279-3.4299397 3-3.8739825zm1 5.8739825c1.1045695 0 2-.8954305 2-2s-.8954305-2-2-2-2 .8954305-2 2 .8954305 2 2 2z"/><path d="m18 17c1.1045695 0 2-.8954305 2-2 0-.7363797-.6666667-1.7363797-2-3-1.3333333 1.2636203-2 2.2636203-2 3 0 1.1045695.8954305 2 2 2z" opacity=".3"/></g></g></svg>

<svg width="24px" height="24px" viewBox="0 0 24 24" version="1.1" xmlns="http://www.w3.org/2000/svg" xmlns:xlink="http://www.w3.org/1999/xlink">
    <title>Icon For Water-mixer</title>
    <g stroke="none" stroke-width="1" fill="none" fill-rule="evenodd">
        <polygon opacity="0" points="0 0 24 0 24 24 0 24"></polygon>
        <path d="M8,18 L8,18 C10.209139,18 12,19.790861 12,22 L4,22 L4,22 C4,19.790861 5.790861,18 8,18 Z" fill="#000000" opacity="0.3"></path>
        <path d="M7,12.1260175 L7,8 C7,4.6862915 9.6862915,2 13,2 C16.3137085,2 19,4.6862915 19,8 L19,9 L17,9 L17,8 C17,5.790861 15.209139,4 13,4 C10.790861,4 9,5.790861 9,8 L9,12.1260175 C10.7252272,12.5700603 12,14.1361606 12,16 C12,18.209139 10.209139,20 8,20 C5.790861,20 4,18.209139 4,16 C4,14.1361606 5.27477279,12.5700603 7,12.1260175 Z M8,18 C9.1045695,18 10,17.1045695 10,16 C10,14.8954305 9.1045695,14 8,14 C6.8954305,14 6,14.8954305 6,16 C6,17.1045695 6.8954305,18 8,18 Z" fill="#000000"></path>
        <path d="M18,17 C19.1045695,17 20,16.1045695 20,15 C20,14.2636203 19.3333333,13.2636203 18,12 C16.6666667,13.2636203 16,14.2636203 16,15 C16,16.1045695 16.8954305,17 18,17 Z" fill="#000000" opacity="0.3"></path>
    </g>
</svg>
